!!!COM: James, James
!!!CDT: 1833-1902
!!!OTL: National Anthem, Wales - Hen Wlad fy Nhadau (Land of My Fathers)
!!!ENC: Davis, Matthew J.
!!Vocal Line Only
**kern
*clefG2
*k[b-e-a-]
*E-:
*M3/4
=1-
4r
=2
1r
=3
1r
=4
1r
==5
!Coda Symbol
4e-
=6
4g
4f
4e-
=7
4b-
4a-
4g
=8
4ee-
4ee-
8cc
8dd
=9
2ee-
4cc
=10
4b-
4g
4e-
=11
4e-
4d
4e-
=12
4g
4f
4f
=13
2f
4b-
=14
4b-
4b-
8g
8a-
=15
4b-
4b-
4ee-
=16
4ee-
4ee-
8cc
8dd
=17
2ee-
4cc
=18
4b-
4g
4e-
=19
4f
4g
4f
=20
[2.e-
=21
2.e-]
==22
!Chorus
2.b-
=23
2.ee-
=24
4b-
4g
4e-
=25
4e-
4d
4e-
=26
2f
4b-
=27
2b-
8g
8a-
=28
2b-
4ee-
=29
2ee-
8cc
8dd
=30
2ee-
4cc
=31
4b-
4g
4e-
=32
4f
4g
4f
=33
2e-
!D. Coda
==|!
*-
